X:14006
T:New York Girls
T:Can't You Dance The Polka?
R:Polka
M:4/4
L:1/4
Q:1/4=170
K:G
d|"G"GB dB|"C"ce-eg|"D"fd cd|"G"B3 d|"G"g>g gd|"C"fe ce|"D7"dd cA|"G"GA Bc|
"G"d3 B|"C"c e3|"D"d2 c2|"G"B G3|"G"g3 d|"C"fe c2|"D7"d>d cA|"G"A G2|]

